svg/emoji_u1f637.svg

<svg width="128" height="128" viewBox="0 0 128 128" fill="none" xmlns="http://www.w3.org/2000/svg">
<path d="M63.6001 118.8C35.7001 118.8 5.6001 101.3 5.6001 62.9C5.6001 24.5 35.7001 7 63.6001 7C79.1001 7 93.4001 12.1 104 21.4C115.5 31.6 121.6 46 121.6 62.9C121.6 79.8 115.5 94.1 104 104.3C93.4001 113.6 79.0001 118.8 63.6001 118.8Z" fill="url(#paint0_radial_2447_110)" style=""/>
<path d="M45.2502 33.8992C47.5502 34.0992 48.4502 30.9992 46.0502 30.2992C44.1602 29.7892 42.2002 29.5892 40.2502 29.6992C34.9602 29.8992 29.9502 32.1192 26.2502 35.8992C24.5502 37.6992 26.9502 39.8992 28.7502 38.5992C33.5702 35.2292 39.3802 33.5692 45.2502 33.8992Z" fill="#422B0D" style="fill:#422B0D;fill:color(display-p3 0.2588 0.1686 0.0510);fill-opacity:1;"/>
<path d="M81.8501 33.8992C87.7501 33.5592 93.6001 35.2092 98.4501 38.5992C100.25 39.8992 102.65 37.6992 100.95 35.8992C97.2401 32.1392 92.2301 29.9192 86.9501 29.6992C85.0001 29.5892 83.0401 29.7892 81.1501 30.2992C80.1701 30.5792 79.6001 31.5892 79.8801 32.5692C80.1201 33.4392 80.9601 33.9992 81.8501 33.8992Z" fill="#422B0D" style="fill:#422B0D;fill:color(display-p3 0.2588 0.1686 0.0510);fill-opacity:1;"/>
<path opacity="0.8" d="M27.25 85.9062C36.915 85.9062 44.75 78.0712 44.75 68.4062C44.75 58.7413 36.915 50.9062 27.25 50.9062C17.585 50.9062 9.75 58.7413 9.75 68.4062C9.75 78.0712 17.585 85.9062 27.25 85.9062Z" fill="url(#paint1_radial_2447_110)" style=""/>
<path opacity="0.8" d="M100.75 85.9062C110.415 85.9062 118.25 78.0712 118.25 68.4062C118.25 58.7413 110.415 50.9062 100.75 50.9062C91.085 50.9062 83.25 58.7413 83.25 68.4062C83.25 78.0712 91.085 85.9062 100.75 85.9062Z" fill="url(#paint2_radial_2447_110)" style=""/>
<path d="M97.5611 58.8541C98.9211 57.5941 99.0011 55.4741 97.7411 54.1241C97.5411 53.9041 97.3111 53.7141 97.0611 53.5541C94.1411 51.3841 90.8611 49.7541 87.3611 48.7541C83.8311 47.8741 80.1811 47.6041 76.5611 47.9541C74.6811 48.0041 73.1911 49.5741 73.2411 51.4541C73.2511 51.7241 73.2911 51.9941 73.3611 52.2541C73.9511 53.9841 75.6411 55.0941 77.4611 54.9541C80.1411 54.6941 82.8411 54.8541 85.4611 55.4541C88.0411 56.2441 90.4811 57.4641 92.6611 59.0541C94.1411 60.1441 96.1811 60.0641 97.5611 58.8541Z" fill="#422B0D" style="fill:#422B0D;fill:color(display-p3 0.2588 0.1686 0.0510);fill-opacity:1;"/>
<path d="M29.9893 58.8541C28.6293 57.5941 28.5493 55.4741 29.8093 54.1241C30.0093 53.9041 30.2393 53.7141 30.4893 53.5541C33.4093 51.3841 36.6893 49.7541 40.1893 48.7541C43.7193 47.8741 47.3693 47.6041 50.9893 47.9541C52.8193 47.9841 54.2693 49.4941 54.2393 51.3241C54.2293 51.6441 54.1793 51.9541 54.0893 52.2541C53.4993 53.9841 51.8093 55.0941 49.9893 54.9541C47.3093 54.6941 44.6093 54.8541 41.9893 55.4541C39.4093 56.2441 36.9693 57.4641 34.7893 59.0541C33.3493 60.1441 31.3293 60.0641 29.9893 58.8541Z" fill="#422B0D" style="fill:#422B0D;fill:color(display-p3 0.2588 0.1686 0.0510);fill-opacity:1;"/>
<path d="M111.49 29.6699C116.82 38.2699 119.6 48.5099 119.6 59.8999C119.6 76.7999 113.5 91.0999 102 101.3C91.3999 110.6 76.9999 115.8 61.5999 115.8C43.5399 115.8 24.5599 108.45 13.4199 92.8599C24.1799 110.52 44.4099 118.8 63.5999 118.8C78.9999 118.8 93.3999 113.6 104 104.3C115.5 94.0999 121.6 79.7999 121.6 62.8999C121.6 50.1599 118.13 38.8399 111.49 29.6699Z" fill="#EB8F00" style="fill:#EB8F00;fill:color(display-p3 0.9216 0.5608 0.0000);fill-opacity:1;"/>
<path d="M28.19 91.1698C20.84 94.7998 14.29 94.2299 14.29 94.2299C16.34 97.9899 18.37 99.7999 20.38 101.79C20.38 101.79 24.09 102.12 28.61 100.15C33.13 98.1799 35.54 87.5398 28.19 91.1698Z" fill="#EEEEEE" style="fill:#EEEEEE;fill:color(display-p3 0.9333 0.9333 0.9333);fill-opacity:1;"/>
<path d="M28.5001 69.2198C14.7501 68.2898 5.6801 59.8198 5.6801 59.8198C5.2201 64.7898 5.9101 69.5198 5.9101 69.5198C5.9101 69.5198 12.4201 77.6298 28.2401 78.5198C40.2901 79.1998 39.9801 69.9998 28.5001 69.2198Z" fill="#EEEEEE" style="fill:#EEEEEE;fill:color(display-p3 0.9333 0.9333 0.9333);fill-opacity:1;"/>
<path d="M98.93 91.1699C106.28 94.7999 112.83 94.2299 112.83 94.2299C110.78 97.9899 108.75 99.7999 106.74 101.79C106.74 101.79 103.03 102.12 98.51 100.15C93.99 98.1699 91.58 87.5399 98.93 91.1699Z" fill="#EEEEEE" style="fill:#EEEEEE;fill:color(display-p3 0.9333 0.9333 0.9333);fill-opacity:1;"/>
<path d="M98.6201 69.2198C112.37 68.2898 121.44 59.8198 121.44 59.8198C121.9 64.7898 121.21 69.5198 121.21 69.5198C121.21 69.5198 114.7 77.6298 98.8801 78.5198C86.8301 79.1998 87.1301 69.9998 98.6201 69.2198Z" fill="#EEEEEE" style="fill:#EEEEEE;fill:color(display-p3 0.9333 0.9333 0.9333);fill-opacity:1;"/>
<path d="M100.98 96.8699V86.0999V79.1899L100.97 70.6399C100.9 68.8999 99.81 68.3199 97.58 67.5099C92.58 65.6899 77.44 61.1799 64 61.1699H63.99H63.98C50.54 61.1699 35.39 65.6899 30.4 67.5099C28.17 68.3199 27.09 68.8999 27.01 70.6399L27 79.1899V86.0999V96.8699C27 97.4199 26.84 100.17 30.16 101.77C33.85 103.55 48.92 109.12 63.99 109.12C79.06 109.12 94.14 103.55 97.82 101.77C101.14 100.17 100.98 97.4199 100.98 96.8699Z" fill="#F5F5F5" style="fill:#F5F5F5;fill:color(display-p3 0.9608 0.9608 0.9608);fill-opacity:1;"/>
<path d="M30.4002 67.4997C29.6402 67.6297 28.9602 67.9897 28.5202 68.4797C28.1002 68.9897 27.8702 69.5897 27.8302 70.2497C27.7702 70.8797 27.8402 71.6497 27.8802 72.3897L28.0102 74.6497C28.2102 77.6697 28.3202 80.7097 28.3602 83.7497C28.3902 86.7897 28.3502 89.8297 28.1602 92.8797C28.1102 93.6497 28.0802 94.3897 28.0002 95.1897C27.9102 95.9497 27.8402 96.6597 27.8402 97.3697C27.8202 98.7797 28.0402 100.25 29.2702 101.26C28.5102 101.07 27.8102 100.52 27.3402 99.8297C26.8702 99.1397 26.5802 98.3397 26.3802 97.5397C26.1902 96.7397 26.1102 95.9297 26.0302 95.1697C25.9402 94.4397 25.8902 93.6697 25.8102 92.9097C25.5202 89.8697 25.3802 86.8297 25.3502 83.7797C25.3202 80.7297 25.3902 77.6797 25.6702 74.6197C25.8202 73.0697 25.9202 71.5997 26.4002 69.9197C26.6902 69.0997 27.2402 68.2897 28.0002 67.8397C28.7802 67.3897 29.6502 67.2997 30.4002 67.4997Z" fill="#808080" style="fill:#808080;fill:color(display-p3 0.5020 0.5020 0.5020);fill-opacity:1;"/>
<path d="M97.4001 67.5C98.1501 67.3 99.0201 67.39 99.7901 67.83C100.55 68.28 101.1 69.09 101.39 69.91C101.87 71.59 101.97 73.06 102.12 74.61C102.4 77.67 102.47 80.72 102.44 83.77C102.41 86.82 102.27 89.86 101.98 92.9C101.91 93.65 101.85 94.43 101.76 95.16C101.68 95.92 101.6 96.74 101.41 97.53C101.21 98.32 100.92 99.12 100.45 99.82C99.9801 100.51 99.2801 101.06 98.5201 101.25C99.7501 100.24 99.9701 98.77 99.9501 97.36C99.9501 96.64 99.8801 95.94 99.7901 95.18C99.7101 94.39 99.6801 93.64 99.6301 92.87C99.4401 89.82 99.4001 86.78 99.4301 83.74C99.4701 80.7 99.5801 77.67 99.7801 74.64L99.9101 72.38C99.9501 71.64 100.02 70.87 99.9601 70.24C99.9201 69.58 99.7001 68.98 99.2701 68.47C98.8401 67.99 98.1701 67.63 97.4001 67.5Z" fill="#808080" style="fill:#808080;fill:color(display-p3 0.5020 0.5020 0.5020);fill-opacity:1;"/>
<defs>
<radialGradient id="paint0_radial_2447_110" cx="0" cy="0" r="1" gradientUnits="userSpaceOnUse" gradientTransform="translate(63.6001 62.9002) scale(56.9597 56.9597)">
<stop offset="0.5" stop-color="#FDE030" style="stop-color:#FDE030;stop-color:color(display-p3 0.9922 0.8784 0.1882);stop-opacity:1;"/>
<stop offset="0.9188" stop-color="#F7C02B" style="stop-color:#F7C02B;stop-color:color(display-p3 0.9686 0.7529 0.1686);stop-opacity:1;"/>
<stop offset="1" stop-color="#F4A223" style="stop-color:#F4A223;stop-color:color(display-p3 0.9569 0.6353 0.1373);stop-opacity:1;"/>
</radialGradient>
<radialGradient id="paint1_radial_2447_110" cx="0" cy="0" r="1" gradientUnits="userSpaceOnUse" gradientTransform="translate(27.2506 68.4049) scale(19.038 18.0852)">
<stop stop-color="#ED7770" style="stop-color:#ED7770;stop-color:color(display-p3 0.9294 0.4667 0.4392);stop-opacity:1;"/>
<stop offset="0.9" stop-color="#ED7770" stop-opacity="0" style="stop-color:none;stop-opacity:0;"/>
</radialGradient>
<radialGradient id="paint2_radial_2447_110" cx="0" cy="0" r="1" gradientUnits="userSpaceOnUse" gradientTransform="translate(100.752 68.4049) scale(19.038 18.0852)">
<stop stop-color="#ED7770" style="stop-color:#ED7770;stop-color:color(display-p3 0.9294 0.4667 0.4392);stop-opacity:1;"/>
<stop offset="0.9" stop-color="#ED7770" stop-opacity="0" style="stop-color:none;stop-opacity:0;"/>
</radialGradient>
</defs>
</svg>

<?xml version="1.0" encoding="utf-8"?>
<!-- Generator: Adobe Illustrator 25.2.3, SVG Export Plug-In . SVG Version: 6.00 Build 0)  -->
<svg version="1.1" id="Layer_1" xmlns="http://www.w3.org/2000/svg" xmlns:xlink="http://www.w3.org/1999/xlink" x="0px" y="0px"
	 viewBox="0 0 128 128" style="enable-background:new 0 0 128 128;" xml:space="preserve">
<radialGradient id="face_1_" cx="63.6" cy="2931.0103" r="56.9597" gradientTransform="matrix(1 0 0 1 0 -2868.1101)" gradientUnits="userSpaceOnUse">
	<stop  offset="0.5" style="stop-color:#FDE030"/>
	<stop  offset="0.9188" style="stop-color:#F7C02B"/>
	<stop  offset="1" style="stop-color:#F4A223"/>
</radialGradient>
<path id="face_6_" style="fill:url(#face_1_);" d="M63.6,118.8c-27.9,0-58-17.5-58-55.9S35.7,7,63.6,7c15.5,0,29.8,5.1,40.4,14.4
	c11.5,10.2,17.6,24.6,17.6,41.5s-6.1,31.2-17.6,41.4C93.4,113.6,79,118.8,63.6,118.8z"/>
<path style="fill:#EB8F00;" d="M111.49,29.67c5.33,8.6,8.11,18.84,8.11,30.23c0,16.9-6.1,31.2-17.6,41.4
	c-10.6,9.3-25,14.5-40.4,14.5c-18.06,0-37.04-7.35-48.18-22.94c10.76,17.66,30.99,25.94,50.18,25.94c15.4,0,29.8-5.2,40.4-14.5
	c11.5-10.2,17.6-24.5,17.6-41.4C121.6,50.16,118.13,38.84,111.49,29.67z"/>
<g>
	<g id="face-with-medical-mask_1_">
		<g>
			<path style="fill:#EEEEEE;" d="M28.19,91.17c-7.35,3.63-13.9,3.06-13.9,3.06c2.05,3.76,4.08,5.57,6.09,7.56
				c0,0,3.71,0.33,8.23-1.64S35.54,87.54,28.19,91.17z"/>
			<path style="fill:#EEEEEE;" d="M28.5,69.22c-13.75-0.93-22.82-9.4-22.82-9.4c-0.46,4.97,0.23,9.7,0.23,9.7s6.51,8.11,22.33,9
				C40.29,79.2,39.98,70,28.5,69.22z"/>
		</g>
		<g>
			<path style="fill:#EEEEEE;" d="M98.93,91.17c7.35,3.63,13.9,3.06,13.9,3.06c-2.05,3.76-4.08,5.57-6.09,7.56
				c0,0-3.71,0.33-8.23-1.64C93.99,98.17,91.58,87.54,98.93,91.17z"/>
			<path style="fill:#EEEEEE;" d="M98.62,69.22c13.75-0.93,22.82-9.4,22.82-9.4c0.46,4.97-0.23,9.7-0.23,9.7s-6.51,8.11-22.33,9
				C86.83,79.2,87.13,70,98.62,69.22z"/>
		</g>
	</g>
	<path style="fill:#F5F5F5;" d="M100.98,96.87V86.1v-6.91l-0.01-8.55c-0.07-1.74-1.16-2.32-3.39-3.13c-5-1.82-20.14-6.33-33.58-6.34
		l0,0h-0.01h-0.01l0,0c-13.44,0-28.59,4.52-33.58,6.34c-2.23,0.81-3.31,1.39-3.39,3.13L27,79.19v6.91v10.77
		c0,0.55-0.16,3.3,3.16,4.9c3.69,1.78,18.76,7.35,33.83,7.35s30.15-5.57,33.83-7.35C101.14,100.17,100.98,97.42,100.98,96.87z"/>
	<g>
		<path style="fill:#808080;" d="M30.4,67.5c-0.76,0.13-1.44,0.49-1.88,0.98c-0.42,0.51-0.65,1.11-0.69,1.77
			c-0.06,0.63,0.01,1.4,0.05,2.14l0.13,2.26c0.2,3.02,0.31,6.06,0.35,9.1c0.03,3.04-0.01,6.08-0.2,9.13
			c-0.05,0.77-0.08,1.51-0.16,2.31c-0.09,0.76-0.16,1.47-0.16,2.18c-0.02,1.41,0.2,2.88,1.43,3.89c-0.76-0.19-1.46-0.74-1.93-1.43
			s-0.76-1.49-0.96-2.29c-0.19-0.8-0.27-1.61-0.35-2.37c-0.09-0.73-0.14-1.5-0.22-2.26c-0.29-3.04-0.43-6.08-0.46-9.13
			c-0.03-3.05,0.04-6.1,0.32-9.16c0.15-1.55,0.25-3.02,0.73-4.7c0.29-0.82,0.84-1.63,1.6-2.08C28.78,67.39,29.65,67.3,30.4,67.5z"/>
	</g>
	<g>
		<path style="fill:#808080;" d="M97.4,67.5c0.75-0.2,1.62-0.11,2.39,0.33c0.76,0.45,1.31,1.26,1.6,2.08
			c0.48,1.68,0.58,3.15,0.73,4.7c0.28,3.06,0.35,6.11,0.32,9.16s-0.17,6.09-0.46,9.13c-0.07,0.75-0.13,1.53-0.22,2.26
			c-0.08,0.76-0.16,1.58-0.35,2.37c-0.2,0.79-0.49,1.59-0.96,2.29c-0.47,0.69-1.17,1.24-1.93,1.43c1.23-1.01,1.45-2.48,1.43-3.89
			c0-0.72-0.07-1.42-0.16-2.18c-0.08-0.79-0.11-1.54-0.16-2.31c-0.19-3.05-0.23-6.09-0.2-9.13c0.04-3.04,0.15-6.07,0.35-9.1
			l0.13-2.26c0.04-0.74,0.11-1.51,0.05-2.14c-0.04-0.66-0.26-1.26-0.69-1.77C98.84,67.99,98.17,67.63,97.4,67.5z"/>
	</g>
</g>
<path style="fill:#422B0D;" d="M44.67,41.94L44.67,41.94c-4.19,0-8,3.54-8,9.42s3.81,9.42,8,9.42l0,0c4.19,0,8-3.54,8-9.42
	S48.86,41.94,44.67,41.94z"/>
<g>
	<g id="peepers_58_">
		<path style="fill:#896024;" d="M44.28,45.87L44.28,45.87c-1.03-0.72-2.58-0.49-3.58,0.95c-1,1.45-0.67,2.97,0.36,3.69l0,0
			c1.03,0.72,2.58,0.49,3.58-0.95C45.64,48.11,45.31,46.59,44.28,45.87z"/>
	</g>
</g>
<path style="fill:#422B0D;" d="M83.02,41.94L83.02,41.94c-4.19,0-8,3.54-8,9.42s3.81,9.42,8,9.42l0,0c4.19,0,8-3.54,8-9.42
	S87.21,41.94,83.02,41.94z"/>
<g>
	<g id="peepers_55_">
		<path style="fill:#896024;" d="M82.63,45.87L82.63,45.87c-1.03-0.72-2.58-0.49-3.58,0.95c-1,1.45-0.67,2.97,0.36,3.69l0,0
			c1.03,0.72,2.58,0.49,3.58-0.95C84,48.11,83.67,46.59,82.63,45.87z"/>
	</g>
</g>
</svg>
